packages/sources/icons/src/vitamix/shield-check-fill.svg

<svg width="16" height="16" viewBox="0 0 16 16" fill="none" xmlns="http://www.w3.org/2000/svg">
<path fill-rule="evenodd" clip-rule="evenodd" d="M13.478 1.88399L8 0.666656L2.522 1.88399C2.21733 1.95199 2 2.22199 2 2.53466V9.19332C2 10.53 2.668 11.7787 3.78133 12.5207L8 15.3333L12.2187 12.5207C13.3313 11.7793 14 10.53 14 9.19266V2.53466C14 2.22199 13.7827 1.95199 13.478 1.88399ZM7.66808 8.78068L10.9681 5.48135L11.9114 6.42402L7.66875 10.6667L4.84008 7.83802L5.78275 6.89535L7.66808 8.78068Z" fill="#001018"/>
</svg>

<svg width="16" height="16" fill="none" xmlns="http://www.w3.org/2000/svg"><path fill-rule="evenodd" clip-rule="evenodd" d="M13.478 1.884 8 .667 2.522 1.884a.667.667 0 0 0-.522.65v6.66a4 4 0 0 0 1.781 3.327L8 15.333l4.219-2.812A4 4 0 0 0 14 9.193V2.535a.667.667 0 0 0-.522-.651zm-5.81 6.897 3.3-3.3.943.943-4.242 4.243L4.84 7.838l.943-.943 1.885 1.886z" fill="#001018"/></svg>
